X:5
T:LÃ¤ndler C,G
T:Hanny Christen. Bd.IX Uri II, Schwyz, Unterwalden I. S.300 (LD10904) orig. F,C-Dur
M:3/4
L:1/8
K:Cmaj
"G7"G2 Bd f2 | "C"eG cG e2 | "G7"dG BG d2 | "C"cB cE G2 | "G7"G2 Bd fa | "C"gc ec g2 | "G7"fB dB fB | "C"c2 z2z2 :: [K:Gmaj] 
"D7"FA ce dc | "G"Bc dD GB | "D7"FA cD FA | "G"GG, B,D GB | "D7"FA ce dc | "G"Bd g2 fe | "D7"d2 Fe dF | "G"G2 z2z2 :| 

